icons/quarkus-icon.svg

<?xml version="1.0" encoding="UTF-8"?>
<svg width="256px" height="257px" viewBox="0 0 256 257" version="1.1" xmlns="http://www.w3.org/2000/svg" xmlns:xlink="http://www.w3.org/1999/xlink" preserveAspectRatio="xMidYMid">
    <g>
        <path d="M213.554286,0 C236.971809,0.0808856956 255.931248,19.0522859 255.997363,42.4698554 L255.997363,42.4698554 L255.997363,213.554286 C255.931172,236.982267 236.955489,255.95795 213.527508,256.024141 L213.527508,256.024141 L188.088439,256.024141 L176.426635,227.706441 L213.554286,227.706441 C221.328098,227.60547 227.60547,221.328098 227.706441,213.554286 L227.706441,213.554286 L227.706441,42.4698554 C227.60547,34.6960436 221.328098,28.4186713 213.554286,28.3177 L213.554286,28.3177 L42.4698554,28.3177 C34.6960436,28.4186713 28.4186713,34.6960436 28.3177,42.4698554 L28.3177,42.4698554 L28.3177,213.554286 C28.4186713,221.328098 34.6960436,227.60547 42.4698554,227.706441 L42.4698554,227.706441 L105.076742,227.706441 L128.012071,179.211543 L159.63685,256.024141 L42.4698554,256.024141 C19.0418742,255.95795 0.0661915219,236.982267 0,213.554286 L0,213.554286 L0,42.4698554 C0.0661915219,19.0418742 19.0418742,0.0661915219 42.4698554,0 L42.4698554,0 L213.554286,0 Z M169.571475,139.727431 L169.571475,185.236586 L130.154308,162.488703 L169.571475,139.727431 Z M86.452666,94.2182765 L86.452666,139.727431 L47.0354988,116.966159 L86.452666,94.2182765 Z M167.429238,44.9869845 L167.429238,90.4961392 L128.012071,67.7348671 L167.429238,44.9869845 Z" fill="#4695EB"></path>
        <path d="M86.452666,139.727431 L125.869833,162.488703 L86.452666,185.236586 L86.452666,139.727431 Z M169.571475,94.2182765 L208.988642,116.966159 L169.571475,139.727431 L169.571475,94.2182765 Z M88.5949035,44.9869845 L128.012071,67.7348671 L88.5949035,90.4961392 L88.5949035,44.9869845 Z" fill="#FF004A"></path>
        <path d="M86.452666,94.2182765 L125.869833,116.966159 L125.869833,162.488703 L86.452666,139.727431 L86.452666,94.2182765 Z M169.571475,94.2182765 L169.571475,139.727431 L130.154308,162.488703 L130.154308,116.966159 L169.571475,94.2182765 Z M128.012071,67.7348671 L167.429238,90.4961392 L128.012071,113.257411 L88.5949035,90.4961392 L128.012071,67.7348671 Z" fill="#091313"></path>
    </g>
</svg>

<svg xmlns="http://www.w3.org/2000/svg" viewBox="0 0 255.997 256.024">
  <path fill="#4695eb" d="M213.554 0c23.418.08 42.377 19.052 42.443 42.47v171.084c-.066 23.428-19.042 42.404-42.47 42.47h-25.439l-11.661-28.318h37.127c7.774-.1 14.051-6.378 14.152-14.152V42.47c-.1-7.774-6.378-14.051-14.152-14.152H42.47c-7.774.1-14.051 6.378-14.152 14.152v171.084c.1 7.774 6.378 14.051 14.152 14.152h62.607l22.935-48.494 31.625 76.812H42.47C19.042 255.958.066 236.982 0 213.554V42.47C.066 19.042 19.042.066 42.47 0zm-43.983 139.727v45.51l-39.417-22.748zM86.453 94.218v45.51l-39.418-22.762zm80.976-49.231v45.51l-39.417-22.762z"/>
  <path fill="#ff004a" d="m86.453 139.727 39.417 22.762-39.417 22.748zm83.118-45.509 39.418 22.748-39.418 22.761zM88.595 44.987l39.417 22.748-39.417 22.761z"/>
  <path fill="#091313" d="m86.453 94.218 39.417 22.748v45.523l-39.417-22.762zm83.118 0v45.51l-39.417 22.76v-45.522zm-41.559-26.483 39.417 22.761-39.417 22.761-39.417-22.76z"/>
</svg>
